X: 1
T: Branch Line, The
M: 2/4
L: 1/8
R: polka
K: Gmaj
|:e|dG BG|FG Ae|dG Bd|g2 fe|dG BG|FG Ae|ed cA|G2 G:|
|:a|bg af/a/|gf ed|bg af/a/|g2 ga|bg af/a/|gf ed|Bd ef|g2 g:|
